src/assets/icons/log-in.svg

<?xml version="1.0" encoding="UTF-8" standalone="no"?>
<!-- Uploaded to: SVG Repo, www.svgrepo.com, Generator: SVG Repo Mixer Tools -->

<svg
   width="800px"
   height="800px"
   viewBox="0 0 24 24"
   fill="none"
   version="1.1"
   id="svg2"
   sodipodi:docname="log-in - Copy.svg"
   inkscape:version="1.3.2 (091e20e, 2023-11-25, custom)"
   xmlns:inkscape="http://www.inkscape.org/namespaces/inkscape"
   xmlns:sodipodi="http://sodipodi.sourceforge.net/DTD/sodipodi-0.dtd"
   xmlns="http://www.w3.org/2000/svg"
   xmlns:svg="http://www.w3.org/2000/svg">
  <defs
     id="defs2" />
  <sodipodi:namedview
     id="namedview2"
     pagecolor="#ffffff"
     bordercolor="#000000"
     borderopacity="0.25"
     inkscape:showpageshadow="2"
     inkscape:pageopacity="0.0"
     inkscape:pagecheckerboard="0"
     inkscape:deskcolor="#d1d1d1"
     inkscape:zoom="0.97125"
     inkscape:cx="399.4852"
     inkscape:cy="400"
     inkscape:window-width="1920"
     inkscape:window-height="991"
     inkscape:window-x="-9"
     inkscape:window-y="-9"
     inkscape:window-maximized="1"
     inkscape:current-layer="svg2" />
  <path
     fill-rule="evenodd"
     clip-rule="evenodd"
     d="M20 23L12 23C11.4477 23 11 22.5523 11 22C11 21.4477 11.4477 21 12 21L20 21C20.5523 21 21 20.5523 21 20L21 4C21 3.44771 20.5523 3 20 3L12 3C11.4477 3 11 2.55228 11 2C11 1.44772 11.4477 1 12 1L20 0.999999C21.6569 0.999999 23 2.34315 23 4L23 20C23 21.6569 21.6569 23 20 23Z"
     fill="#0F0F0F"
     id="path1" />
  <path
     d="m 7.8009478,18.283134 c 0.39051,0.3905 1.02371,0.3905 1.41421,0 l 4.8874002,-4.8923 c 0.7804,-0.7811 0.7801,-2.0469 -6e-4,-2.8277 L 9.2115578,5.6727742 c -0.3905,-0.39052 -1.0237,-0.39052 -1.41422,0 -0.39053,0.39053 -0.39053,1.02369 0,1.41422 l 4.1856202,4.1856398 c 0.3906,0.3905 0.3906,1.0237 0,1.4142 l -4.1820102,4.1821 c -0.39053,0.3905 -0.39053,1.0236 0,1.4142 z"
     fill="#0f0f0f"
     id="path1-1" />
</svg>

<svg xmlns="http://www.w3.org/2000/svg" width="800" height="800" fill="none" viewBox="0 0 24 24">
   <path fill="#0F0F0F" fill-rule="evenodd"
      d="M20 23h-8a1 1 0 1 1 0-2h8a1 1 0 0 0 1-1V4a1 1 0 0 0-1-1h-8a1 1 0 1 1 0-2h8a3 3 0 0 1 3 3v16a3 3 0 0 1-3 3Z"
      clip-rule="evenodd" />
   <path fill="#0f0f0f"
      d="M7.8 18.283a1 1 0 0 0 1.415 0l4.888-4.892a2 2 0 0 0-.001-2.828l-4.89-4.89a1 1 0 0 0-1.415 1.414l4.186 4.186a1 1 0 0 1 0 1.414l-4.182 4.182a1 1 0 0 0 0 1.414z" />
</svg>
